X:1
T:Örebro, 10.10.12.10
T:Örebro, 10.10.12.10
T:George Frederick Root, 1860
T:Public Domain Courtesy of the Cyber Hymnal™
C:George Frederick Root, 1860
Z:Public Domain
Z:Courtesy of the Cyber Hymnal™
%%score ( 1 2 ) ( 3 4 )
L:1/8
Q:1/4=95
M:2/4
K:Ab
V:1 treble 
V:2 treble 
V:3 bass 
V:4 bass 
V:1
 [Ec]2 [DB][CA] | [DF]>E ([DF][CA]) | [EB]2 [Ec]>[EA] | [EB]4 | [Ec]2 [DB][CA] | %5
 [DF]>E ([DF][CA]) | [EB]2 [Ec]>[DB] | [CA]4 | [Ee]2 [Ed][Ec] | [Ed]>[Ec] [EB]2 | [Ec]2 [EB][EA] | %11
 [EG]>[=DF] E2 | [Ec]2 [DB][CA] | [DF]>E ([DF][CA]) | [EB]2 [Ec]>[DB] | [CA]4 |] %16
V:2
 x4 | x3/2 E/ x2 | x4 | x4 | x4 | x3/2 E/ x2 | x4 | x4 | x4 | x4 | x4 | x2 E2 | x4 | x3/2 E/ x2 | %14
 x4 | x4 |] %16
V:3
 [A,,A,]2 [A,,A,][A,,A,] | [D,A,]>[C,A,] A,2 | [E,G,]2 A,>[C,A,] | [E,G,]4 | %4
 [A,,A,]2 [A,,A,][A,,A,] | [D,A,]>[C,A,] A,2 | [E,G,]2 [E,G,]>[E,G,] | [A,,A,]4 | [A,C]2 [A,B,]A, | %9
 [E,B,]>[E,A,] [E,G,]2 | [A,,A,]2 [G,,B,][A,,C] | [B,,B,]>[B,,A,] [E,G,]2 | %12
 [A,,A,]2 [A,,A,][A,,A,] | [D,A,]>[C,A,] A,2 | [E,G,]2 [E,G,]>[E,G,] | [A,,A,]4 |] %16
V:4
 x4 | x2 (D,F,) | x2 A,3/2 x/ | x4 | x4 | x2 (D,F,) | x4 | x4 | x3 A, | x4 | x4 | x4 | x4 | %13
 x2 (D,F,) | x4 | x4 |] %16

